img/icon-close.svg

<svg fill="none" height="21" viewBox="0 0 21 21" width="21" xmlns="http://www.w3.org/2000/svg"><path d="m13.273 10.5 7.422-7.42201c.389-.389.389-1.025 0-1.414l-1.359-1.358995c-.389-.3890004-1.025-.3890004-1.414 0l-7.422 7.421995-7.42201-7.421995c-.389-.3890004-1.025-.3890004-1.414 0l-1.358995 1.358995c-.3890004.389-.3890004 1.025 0 1.414l7.421995 7.42201-7.420995 7.422c-.3890004.389-.3890004 1.025 0 1.414l1.358995 1.359c.389.389 1.025.389 1.414 0l7.42201-7.422 7.422 7.422c.389.389 1.025.389 1.414 0l1.359-1.359c.389-.389.389-1.025 0-1.414z" fill="#ee3643"/></svg>

<svg width="21" height="21" viewBox="0 0 21 21" fill="none" xmlns="http://www.w3.org/2000/svg">
<path d="M13.273 10.5L20.695 3.07799C21.084 2.68899 21.084 2.05299 20.695 1.66399L19.336 0.304995C18.947 -0.0840054 18.311 -0.0840054 17.922 0.304995L10.5 7.72699L3.07799 0.304995C2.68899 -0.0840054 2.05299 -0.0840054 1.66399 0.304995L0.304995 1.66399C-0.0840054 2.05299 -0.0840054 2.68899 0.304995 3.07799L7.72699 10.5L0.305995 17.922C-0.0830054 18.311 -0.0830054 18.947 0.305995 19.336L1.66499 20.695C2.05399 21.084 2.68999 21.084 3.07899 20.695L10.501 13.273L17.923 20.695C18.312 21.084 18.948 21.084 19.337 20.695L20.696 19.336C21.085 18.947 21.085 18.311 20.696 17.922L13.273 10.5Z" fill="#EE3643"/>
</svg>
